TCanvas/fit1_3.svg

<svg xmlns="http://www.w3.org/2000/svg" viewBox="0 0 1200 800" preserveAspectRatio="none" width="1200" height="800">
 <path d="M0,0H1200V800H0Z" style="fill: white;"></path>
 <g>
  <g transform="translate(120,80)">
   <path d="M0,0H960V640H0Z" style="fill: white; stroke: black; stroke-width: 1;"></path>
   <svg x="0" y="0" overflow="hidden" width="960" height="640" viewBox="0 0 960 640">
    <g>
     <path d="M0,462h10v66h9v-78h10v-50h9v-39h10v16h10v-15h9v56h10v-45h9v16h10v-58h10v23h9v-4h10v-79h9v-5h10v-22h10v81h9v-96h10v5h9v28h10v-36h10v21h9v-73h10v27h9v-11h10v-79h10v10h9v11h10v25h9v10h10v-58h10v28h9v-19h10v3h9v36h10v-1h10v-46h9v-8h10v-5h9v3h10v21h10v-10h9v-59h10v16h9v-15h10v30h10v11h9v56h10v-40h9v-81h10v43h10v28h9v15h10v32h9v-8h20v-11h19v31h9v-3h10v-14h10v-71h9v68h10v68h9v-40h10v22h10v-27h9v8h10v53h9v-51h10v68h10v-55h9v71h10v-27h9v17h10v27h10v-2h9v-38h10v32h9v-10h10v64h10v-32h9v76h10v-44h9v50h10v-35h10v85h9v-79h10v64h9v43h10v-11h10v34h9v-9h10v2h9v61h10v-25h10v30h19v82h9v-6h10" style="stroke-linejoin: miter; stroke: #00009a; stroke-width: 1; fill: none;"></path>
    </g>
    <g>
     <path d="M0,403.32C1.11,402.59,7.38,398.46,9.6,396.98S16.99,392.07,19.2,390.59S26.6,385.62,28.8,384.14S36.21,379.13,38.4,377.64S45.82,372.58,48,371.09S55.43,366,57.6,364.5S65.04,359.36,67.2,357.87S74.65,352.69,76.8,351.19S84.26,345.98,86.4,344.47S93.86,339.23,96,337.72S103.47,332.44,105.6,330.93S113.08,325.62,115.2,324.11S122.68,318.77,124.8,317.26S132.29,311.88,134.4,310.37S141.9,304.97,144,303.45S151.5,298.02,153.6,296.5S161.11,291.04,163.2,289.51S170.72,284.03,172.8,282.5S180.32,276.99,182.4,275.46S189.93,269.92,192,268.39S199.53,262.83,201.6,261.3S209.14,255.7,211.2,254.17S218.75,248.55,220.8,247.02S228.35,241.37,230.4,239.84S237.96,234.16,240,232.63S247.56,226.93,249.6,225.39S257.17,219.66,259.2,218.12S266.77,212.37,268.8,210.83S276.38,205.06,278.4,203.51S285.98,197.71,288,196.17S295.59,190.34,297.6,188.79S305.2,182.94,307.2,181.39S314.8,175.51,316.8,173.96S324.41,168.05,326.4,166.5S334.01,160.57,336,159.02S343.62,153.06,345.6,151.51S353.22,145.52,355.2,143.96S362.83,137.95,364.8,136.4S372.43,130.36,374.4,128.8S382.04,122.74,384,121.18S391.65,115.09,393.6,113.53S401.25,107.41,403.2,105.85S410.86,99.7,412.8,98.14S420.46,91.96,422.4,90.4S430.07,84.2,432,82.64S439.67,76.41,441.6,74.84S449.28,68.59,451.2,67.02S458.89,60.74,460.8,59.17S468.42,52.84,470.4,51.29S476.93,44.77,480,44.14S486.78,46.34,489.6,47.37S496.48,50,499.2,51.14S506.2,54.22,508.8,55.46S515.91,59,518.4,60.33S525.63,64.34,528,65.75S535.35,70.25,537.6,71.71S545.06,76.7,547.2,78.21S554.77,83.7,556.8,85.24S564.47,91.23,566.4,92.8S574.17,99.27,576,100.86S583.86,107.82,585.6,109.41S593.54,116.84,595.2,118.44S603.22,126.33,604.8,127.93S612.89,136.26,614.4,137.85S622.55,146.59,624,148.18S632.2,157.31,633.6,158.9S641.85,168.39,643.2,169.97S651.49,179.79,652.8,181.36S661.13,191.48,662.4,193.05S670.76,203.43,672,204.99S680.38,215.61,681.6,217.16S690,227.97,691.2,229.52S699.62,240.48,700.8,242.03S709.23,253.1,710.4,254.64S718.84,265.8,720,267.34S728.44,278.53,729.6,280.07S738.04,291.25,739.2,292.79S747.63,303.94,748.8,305.48S757.22,316.54,758.4,318.08S766.8,329.02,768,330.57S776.38,341.35,777.6,342.9S785.95,353.48,787.2,355.04S795.52,365.39,796.8,366.96S805.09,377.04,806.4,378.62S814.65,388.4,816,389.98S824.2,399.45,825.6,401.03S833.75,410.14,835.2,411.73S843.29,420.46,844.8,422.06S852.82,430.39,854.4,431.99S862.35,439.9,864,441.5S871.87,448.98,873.6,450.57S881.38,457.6,883.2,459.19S890.89,465.76,892.8,467.33S900.4,473.44,902.4,474.99S909.89,480.64,912,482.16S919.39,487.35,921.6,488.83S928.88,493.56,931.2,494.98S938.37,499.27,940.8,500.63S947.86,504.47,950.4,505.77S958.7,509.76,960,510.39" style="fill: none; stroke: red; stroke-width: 2;"></path>
    </g>
   </svg>
   <g>
    <g transform="translate(0,640)">
     <path d="M0,0h960M0,-24v24m19,-12v12m19,-12v12m20,-12v12m19,-12v12m19,-24v24m19,-12v12m19,-12v12m20,-12v12m19,-12v12m19,-24v24m19,-12v12m19,-12v12m20,-12v12m19,-12v12m19,-24v24m19,-12v12m19,-12v12m20,-12v12m19,-12v12m19,-24v24m19,-12v12m19,-12v12m20,-12v12m19,-12v12m19,-24v24m19,-12v12m19,-12v12m20,-12v12m19,-12v12m19,-24v24m19,-12v12m19,-12v12m20,-12v12m19,-12v12m19,-24v24m19,-12v12m19,-12v12m20,-12v12m19,-12v12m19,-24v24m19,-12v12m19,-12v12m20,-12v12m19,-12v12m19,-24v24m19,-12v12m19,-12v12m20,-12v12m19,-12v12m19,-24v24" style="stroke: black; stroke-width: 1;"></path>
     <g font-family="Arial" font-size="28" space="preserve" fill="black" text-anchor="middle">
      <text dy=".8em" transform="translate(0,6)">
       0
      </text>
      <text dy=".8em" transform="translate(96,6)">
       0.5
      </text>
      <text dy=".8em" transform="translate(192,6)">
       1
      </text>
      <text dy=".8em" transform="translate(288,6)">
       1.5
      </text>
      <text dy=".8em" transform="translate(384,6)">
       2
      </text>
      <text dy=".8em" transform="translate(480,6)">
       2.5
      </text>
      <text dy=".8em" transform="translate(576,6)">
       3
      </text>
      <text dy=".8em" transform="translate(672,6)">
       3.5
      </text>
      <text dy=".8em" transform="translate(768,6)">
       4
      </text>
      <text dy=".8em" transform="translate(864,6)">
       4.5
      </text>
      <text dy=".8em" transform="translate(960,6)">
       5
      </text>
     </g>
    </g>
    <g>
     <path d="M0,0v640M18,639h-18m36,-21h-36m18,-21h-18m18,-21h-18m18,-21h-18m36,-21h-36m18,-20h-18m18,-21h-18m18,-21h-18m36,-21h-36m18,-21h-18m18,-21h-18m18,-21h-18m36,-21h-36m18,-20h-18m18,-21h-18m18,-21h-18m36,-21h-36m18,-21h-18m18,-21h-18m18,-21h-18m36,-21h-36m18,-21h-18m18,-20h-18m18,-21h-18m36,-21h-36m18,-21h-18m18,-21h-18m18,-21h-18m36,-21h-36m18,-21h-18" style="stroke: black; stroke-width: 1;"></path>
     <g font-family="Arial" font-size="28" space="preserve" fill="black" text-anchor="end">
      <text dy=".4em" transform="translate(-4,618)">
       3800
      </text>
      <text dy=".4em" transform="translate(-4,534)">
       4000
      </text>
      <text dy=".4em" transform="translate(-4,451)">
       4200
      </text>
      <text dy=".4em" transform="translate(-4,367)">
       4400
      </text>
      <text dy=".4em" transform="translate(-4,284)">
       4600
      </text>
      <text dy=".4em" transform="translate(-4,200)">
       4800
      </text>
      <text dy=".4em" transform="translate(-4,117)">
       5000
      </text>
      <text dy=".4em" transform="translate(-4,33)">
       5200
      </text>
     </g>
    </g>
   </g>
  </g>
  <g transform="translate(120,4)" font-family="Arial" font-size="40" space="preserve">
   <text fill="black" text-anchor="middle" dy=".8em" transform="translate(480)">
    Exponential convoluted by gaussian
   </text>
  </g>
  <g transform="translate(936,52)" font-family="Arial" font-size="22" space="preserve" fill="black">
   <path d="M0,0H240V128H0Z" style="fill: white; stroke: black; stroke-width: 1;"></path>
   <text text-anchor="middle" dy=".4em" transform="translate(120,16)">
    h_ExpGauss
   </text>
   <text text-anchor="start" dy=".4em" transform="translate(12,48)">
    Entries
   </text>
   <text text-anchor="end" dy=".4em" transform="translate(228,48)">
    1000000
   </text>
   <text text-anchor="start" dy=".4em" transform="translate(12,80)">
    Mean
   </text>
   <text text-anchor="end" dy=".4em" transform="translate(228,80)">
    2.475
   </text>
   <text text-anchor="start" dy=".4em" transform="translate(12,112)">
    Std Dev
   </text>
   <text text-anchor="end" dy=".4em" transform="translate(228,112)">
    1.399
   </text>
   <path d="M0,32h240" style="stroke: black; stroke-width: 1;"></path>
  </g>
 </g>
</svg>

<svg xmlns="http://www.w3.org/2000/svg" viewBox="0 0 1200 800" preserveAspectRatio="none" width="1200" height="800">
 <path d="M0,0H1200V800H0Z" style="fill: white;"></path>
 <g>
  <g transform="translate(120,80)">
   <path d="M0,0H960V640H0Z" style="fill: white; stroke: black; stroke-width: 1;"></path>
   <svg x="0" y="0" overflow="hidden" width="960" height="640" viewBox="0 0 960 640">
    <g>
     <path d="M0,462h10v66h9v-78h10v-50h9v-39h10v16h10v-15h9v56h10v-45h9v16h10v-58h10v23h9v-4h10v-79h9v-5h10v-22h10v81h9v-96h10v5h9v28h10v-36h10v21h9v-73h10v27h9v-11h10v-79h10v10h9v11h10v25h9v10h10v-58h10v28h9v-19h10v3h9v36h10v-1h10v-46h9v-8h10v-5h9v3h10v21h10v-10h9v-59h10v16h9v-15h10v30h10v11h9v56h10v-40h9v-81h10v43h10v28h9v15h10v32h9v-8h20v-11h19v31h9v-3h10v-14h10v-71h9v68h10v68h9v-40h10v22h10v-27h9v8h10v53h9v-51h10v68h10v-55h9v71h10v-27h9v17h10v27h10v-2h9v-38h10v32h9v-10h10v64h10v-32h9v76h10v-44h9v50h10v-35h10v85h9v-79h10v64h9v43h10v-11h10v34h9v-9h10v2h9v61h10v-25h10v30h19v82h9v-6h10" style="stroke-linejoin: miter; stroke: #00009a; stroke-width: 1; fill: none;"></path>
    </g>
    <g>
     <path d="M0,403.32C1.11,402.59,7.38,398.46,9.6,396.98S16.99,392.07,19.2,390.59S26.6,385.62,28.8,384.14S36.21,379.13,38.4,377.64S45.82,372.58,48,371.09S55.43,366,57.6,364.5S65.04,359.36,67.2,357.87S74.65,352.69,76.8,351.19S84.26,345.98,86.4,344.47S93.86,339.23,96,337.72S103.47,332.44,105.6,330.93S113.08,325.62,115.2,324.11S122.68,318.77,124.8,317.26S132.29,311.88,134.4,310.37S141.9,304.97,144,303.45S151.5,298.02,153.6,296.5S161.11,291.04,163.2,289.51S170.72,284.03,172.8,282.5S180.32,276.99,182.4,275.46S189.93,269.92,192,268.39S199.53,262.83,201.6,261.3S209.14,255.7,211.2,254.17S218.75,248.55,220.8,247.02S228.35,241.37,230.4,239.84S237.96,234.16,240,232.63S247.56,226.93,249.6,225.39S257.17,219.66,259.2,218.12S266.77,212.37,268.8,210.83S276.38,205.06,278.4,203.51S285.98,197.71,288,196.17S295.59,190.34,297.6,188.79S305.2,182.94,307.2,181.39S314.8,175.51,316.8,173.96S324.41,168.05,326.4,166.5S334.01,160.57,336,159.02S343.62,153.06,345.6,151.51S353.22,145.52,355.2,143.96S362.83,137.95,364.8,136.4S372.43,130.36,374.4,128.8S382.04,122.74,384,121.18S391.65,115.09,393.6,113.53S401.25,107.41,403.2,105.85S410.86,99.7,412.8,98.14S420.46,91.96,422.4,90.4S430.07,84.2,432,82.64S439.67,76.41,441.6,74.84S449.28,68.59,451.2,67.02S458.89,60.74,460.8,59.17S468.42,52.84,470.4,51.29S476.93,44.77,480,44.14S486.78,46.34,489.6,47.37S496.48,50,499.2,51.14S506.2,54.22,508.8,55.46S515.91,59,518.4,60.33S525.63,64.34,528,65.75S535.35,70.25,537.6,71.71S545.06,76.7,547.2,78.21S554.77,83.7,556.8,85.24S564.47,91.23,566.4,92.8S574.17,99.27,576,100.86S583.86,107.82,585.6,109.41S593.54,116.84,595.2,118.44S603.22,126.33,604.8,127.93S612.89,136.26,614.4,137.85S622.55,146.59,624,148.18S632.2,157.31,633.6,158.9S641.85,168.39,643.2,169.97S651.49,179.79,652.8,181.36S661.13,191.48,662.4,193.05S670.76,203.43,672,204.99S680.38,215.61,681.6,217.16S690,227.97,691.2,229.52S699.62,240.48,700.8,242.03S709.23,253.1,710.4,254.64S718.84,265.8,720,267.34S728.44,278.53,729.6,280.07S738.04,291.25,739.2,292.79S747.63,303.94,748.8,305.48S757.22,316.54,758.4,318.08S766.8,329.02,768,330.57S776.38,341.35,777.6,342.9S785.95,353.48,787.2,355.04S795.52,365.39,796.8,366.96S805.09,377.04,806.4,378.62S814.65,388.4,816,389.98S824.2,399.45,825.6,401.03S833.75,410.14,835.2,411.73S843.29,420.46,844.8,422.06S852.82,430.39,854.4,431.99S862.35,439.9,864,441.5S871.87,448.98,873.6,450.57S881.38,457.6,883.2,459.19S890.89,465.76,892.8,467.33S900.4,473.44,902.4,474.99S909.89,480.64,912,482.16S919.39,487.35,921.6,488.83S928.88,493.56,931.2,494.98S938.37,499.27,940.8,500.63S947.86,504.47,950.4,505.77S958.7,509.76,960,510.39" style="fill: none; stroke: red; stroke-width: 2;"></path>
    </g>
   </svg>
   <g>
    <g transform="translate(0,640)">
     <path d="M0,0h960M0,-24V0M19,-12V0M38,-12V0M58,-12V0M77,-12V0M96,-24V0M115,-12V0M134,-12V0M154,-12V0M173,-12V0M192,-24V0M211,-12V0M230,-12V0M250,-12V0M269,-12V0M288,-24V0M307,-12V0M326,-12V0M346,-12V0M365,-12V0M384,-24V0M403,-12V0M422,-12V0M442,-12V0M461,-12V0M480,-24V0M499,-12V0M518,-12V0M538,-12V0M557,-12V0M576,-24V0M595,-12V0M614,-12V0M634,-12V0M653,-12V0M672,-24V0M691,-12V0M710,-12V0M730,-12V0M749,-12V0M768,-24V0M787,-12V0M806,-12V0M826,-12V0M845,-12V0M864,-24V0M883,-12V0M902,-12V0M922,-12V0M941,-12V0M960,-24V0" style="stroke: black; stroke-width: 1;"></path>
     <g font-family="Arial" font-size="28" space="preserve" fill="black" text-anchor="middle">
      <text dy=".8em" transform="translate(0,6)">
       0
      </text>
      <text dy=".8em" transform="translate(96,6)">
       0.5
      </text>
      <text dy=".8em" transform="translate(192,6)">
       1
      </text>
      <text dy=".8em" transform="translate(288,6)">
       1.5
      </text>
      <text dy=".8em" transform="translate(384,6)">
       2
      </text>
      <text dy=".8em" transform="translate(480,6)">
       2.5
      </text>
      <text dy=".8em" transform="translate(576,6)">
       3
      </text>
      <text dy=".8em" transform="translate(672,6)">
       3.5
      </text>
      <text dy=".8em" transform="translate(768,6)">
       4
      </text>
      <text dy=".8em" transform="translate(864,6)">
       4.5
      </text>
      <text dy=".8em" transform="translate(960,6)">
       5
      </text>
     </g>
    </g>
    <g>
     <path d="M0,0v640M18,639H0M36,618H0M18,597H0M18,576H0M18,555H0M36,534H0M18,514H0M18,493H0M18,472H0M36,451H0M18,430H0M18,409H0M18,388H0M36,367H0M18,347H0M18,326H0M18,305H0M36,284H0M18,263H0M18,242H0M18,221H0M36,200H0M18,179H0M18,159H0M18,138H0M36,117H0M18,96H0M18,75H0M18,54H0M36,33H0M18,12H0" style="stroke: black; stroke-width: 1;"></path>
     <g font-family="Arial" font-size="28" space="preserve" fill="black" text-anchor="end">
      <text dy=".4em" transform="translate(-4,618)">
       3800
      </text>
      <text dy=".4em" transform="translate(-4,534)">
       4000
      </text>
      <text dy=".4em" transform="translate(-4,451)">
       4200
      </text>
      <text dy=".4em" transform="translate(-4,367)">
       4400
      </text>
      <text dy=".4em" transform="translate(-4,284)">
       4600
      </text>
      <text dy=".4em" transform="translate(-4,200)">
       4800
      </text>
      <text dy=".4em" transform="translate(-4,117)">
       5000
      </text>
      <text dy=".4em" transform="translate(-4,33)">
       5200
      </text>
     </g>
    </g>
   </g>
  </g>
  <g transform="translate(120,4)" font-family="Arial" font-size="40" space="preserve">
   <text fill="black" text-anchor="middle" dy=".8em" transform="translate(480)">
    Exponential convoluted by gaussian
   </text>
  </g>
  <g transform="translate(936,52)" font-family="Arial" font-size="22" space="preserve" fill="black">
   <path d="M0,0H240V128H0Z" style="fill: white; stroke: black; stroke-width: 1;"></path>
   <text text-anchor="middle" dy=".4em" transform="translate(120,16)">
    h_ExpGauss
   </text>
   <text text-anchor="start" dy=".4em" transform="translate(12,48)">
    Entries
   </text>
   <text text-anchor="end" dy=".4em" transform="translate(228,48)">
    1000000
   </text>
   <text text-anchor="start" dy=".4em" transform="translate(12,80)">
    Mean
   </text>
   <text text-anchor="end" dy=".4em" transform="translate(228,80)">
    2.475
   </text>
   <text text-anchor="start" dy=".4em" transform="translate(12,112)">
    Std Dev
   </text>
   <text text-anchor="end" dy=".4em" transform="translate(228,112)">
    1.399
   </text>
   <path d="M0,32h240" style="stroke: black; stroke-width: 1;"></path>
  </g>
 </g>
</svg>
